flaticon/design/shapes.svg

<svg xmlns="http://www.w3.org/2000/svg" width="32" height="32" viewBox="0 0 24 24">
    <path d="M 23.601562 4.355469 L 13.199219 4.355469 C 12.980469 4.355469 12.800781 4.535156 12.800781 4.757812 L 12.800781 8.007812 L 8.820312 1.042969 C 8.75 0.921875 8.617188 0.84375 8.476562 0.84375 C 8.476562 0.84375 8.476562 0.84375 8.472656 0.84375 C 8.332031 0.84375 8.199219 0.917969 8.128906 1.042969 L 0.0546875 14.957031 C -0.0195312 15.078125 -0.0195312 15.230469 0.0546875 15.355469 C 0.125 15.480469 0.257812 15.558594 0.398438 15.558594 L 6.917969 15.558594 C 6.84375 15.945312 6.800781 16.347656 6.800781 16.757812 C 6.800781 20.285156 9.671875 23.15625 13.199219 23.15625 C 16.730469 23.15625 19.601562 20.285156 19.601562 16.757812 C 19.601562 16.347656 19.558594 15.945312 19.484375 15.558594 L 23.601562 15.558594 C 23.820312 15.558594 24 15.378906 24 15.15625 L 24 4.757812 C 24 4.535156 23.820312 4.355469 23.601562 4.355469 Z M 1.09375 14.757812 L 8.472656 2.042969 L 12.800781 9.621094 L 12.800781 10.371094 C 12.75 10.371094 12.699219 10.378906 12.648438 10.386719 C 12.578125 10.390625 12.511719 10.398438 12.445312 10.40625 C 12.316406 10.421875 12.1875 10.441406 12.0625 10.464844 C 11.996094 10.476562 11.925781 10.484375 11.863281 10.5 C 11.695312 10.535156 11.53125 10.578125 11.367188 10.628906 C 11.273438 10.65625 11.179688 10.691406 11.089844 10.722656 C 11.011719 10.75 10.9375 10.777344 10.859375 10.804688 C 10.757812 10.84375 10.660156 10.886719 10.558594 10.933594 C 10.5 10.960938 10.441406 10.988281 10.386719 11.019531 C 10.035156 11.191406 9.703125 11.394531 9.394531 11.625 C 9.347656 11.65625 9.300781 11.691406 9.257812 11.726562 C 9.167969 11.796875 9.078125 11.871094 8.992188 11.945312 C 8.945312 11.988281 8.898438 12.03125 8.851562 12.074219 C 8.769531 12.152344 8.683594 12.230469 8.605469 12.3125 C 8.570312 12.347656 8.535156 12.390625 8.5 12.429688 C 8.355469 12.585938 8.21875 12.75 8.089844 12.921875 C 8.046875 12.976562 8.007812 13.027344 7.96875 13.082031 C 7.90625 13.171875 7.84375 13.265625 7.785156 13.359375 C 7.75 13.414062 7.714844 13.472656 7.683594 13.53125 C 7.625 13.628906 7.566406 13.730469 7.511719 13.832031 C 7.492188 13.878906 7.46875 13.921875 7.449219 13.96875 C 7.324219 14.222656 7.214844 14.484375 7.125 14.757812 Z M 18.34375 18.964844 C 18.277344 18.84375 18.148438 18.757812 18 18.757812 C 17.777344 18.757812 17.601562 18.9375 17.601562 19.15625 C 17.601562 19.378906 17.777344 19.558594 18 19.558594 C 18.015625 19.558594 18.03125 19.550781 18.046875 19.546875 C 17.554688 20.402344 16.84375 21.113281 15.992188 21.605469 C 15.992188 21.589844 16 21.574219 16 21.558594 C 16 21.335938 15.820312 21.15625 15.601562 21.15625 C 15.378906 21.15625 15.199219 21.335938 15.199219 21.558594 C 15.199219 21.707031 15.285156 21.832031 15.410156 21.902344 C 14.730469 22.195312 13.984375 22.355469 13.199219 22.355469 C 12.414062 22.355469 11.667969 22.195312 10.992188 21.902344 C 11.113281 21.832031 11.199219 21.707031 11.199219 21.558594 C 11.199219 21.335938 11.019531 21.15625 10.800781 21.15625 C 10.578125 21.15625 10.398438 21.335938 10.398438 21.558594 C 10.398438 21.574219 10.40625 21.589844 10.410156 21.605469 C 9.554688 21.113281 8.84375 20.402344 8.351562 19.546875 C 8.367188 19.550781 8.382812 19.558594 8.398438 19.558594 C 8.621094 19.558594 8.800781 19.378906 8.800781 19.15625 C 8.800781 18.9375 8.621094 18.757812 8.398438 18.757812 C 8.25 18.757812 8.125 18.84375 8.054688 18.964844 C 7.761719 18.289062 7.601562 17.539062 7.601562 16.757812 C 7.601562 16.234375 7.675781 15.734375 7.808594 15.253906 C 7.847656 15.121094 7.890625 14.988281 7.9375 14.859375 C 7.945312 14.835938 7.957031 14.808594 7.964844 14.78125 C 7.996094 14.707031 8.027344 14.632812 8.0625 14.554688 C 8.128906 14.675781 8.253906 14.757812 8.398438 14.757812 C 8.621094 14.757812 8.800781 14.578125 8.800781 14.355469 C 8.800781 14.136719 8.621094 13.957031 8.398438 13.957031 C 8.382812 13.957031 8.367188 13.964844 8.351562 13.964844 C 8.355469 13.960938 8.355469 13.957031 8.359375 13.953125 C 8.570312 13.59375 8.816406 13.261719 9.097656 12.957031 C 9.117188 12.933594 9.140625 12.910156 9.160156 12.886719 C 9.242188 12.800781 9.328125 12.722656 9.414062 12.640625 C 9.445312 12.613281 9.476562 12.582031 9.507812 12.554688 C 9.597656 12.476562 9.6875 12.40625 9.777344 12.332031 C 9.808594 12.308594 9.84375 12.285156 9.875 12.261719 C 9.972656 12.1875 10.070312 12.117188 10.171875 12.054688 C 10.191406 12.039062 10.210938 12.03125 10.230469 12.019531 C 10.289062 11.980469 10.347656 11.945312 10.410156 11.910156 C 10.40625 11.929688 10.398438 11.941406 10.398438 11.957031 C 10.398438 12.175781 10.578125 12.355469 10.800781 12.355469 C 11.019531 12.355469 11.199219 12.175781 11.199219 11.957031 C 11.199219 11.808594 11.113281 11.683594 10.996094 11.613281 C 11.085938 11.574219 11.179688 11.539062 11.273438 11.503906 C 11.328125 11.484375 11.378906 11.464844 11.433594 11.445312 C 11.523438 11.414062 11.617188 11.390625 11.707031 11.363281 C 11.78125 11.34375 11.859375 11.324219 11.9375 11.304688 C 12.019531 11.285156 12.097656 11.269531 12.179688 11.253906 C 12.28125 11.234375 12.382812 11.222656 12.484375 11.207031 C 12.546875 11.199219 12.613281 11.1875 12.679688 11.183594 C 12.851562 11.167969 13.023438 11.15625 13.199219 11.15625 C 13.375 11.15625 13.546875 11.167969 13.71875 11.183594 C 13.785156 11.1875 13.851562 11.199219 13.917969 11.207031 C 14.019531 11.222656 14.121094 11.234375 14.21875 11.253906 C 14.300781 11.269531 14.382812 11.285156 14.464844 11.304688 C 14.542969 11.324219 14.617188 11.34375 14.695312 11.363281 C 14.785156 11.390625 14.875 11.417969 14.964844 11.445312 C 15.019531 11.464844 15.074219 11.484375 15.128906 11.503906 C 15.222656 11.539062 15.316406 11.574219 15.40625 11.613281 C 15.285156 11.683594 15.199219 11.808594 15.199219 11.957031 C 15.199219 12.175781 15.378906 12.355469 15.601562 12.355469 C 15.820312 12.355469 16 12.175781 16 11.957031 C 16 11.941406 15.992188 11.929688 15.992188 11.914062 C 16.050781 11.949219 16.113281 11.980469 16.171875 12.019531 C 16.191406 12.03125 16.210938 12.042969 16.226562 12.054688 C 16.328125 12.121094 16.425781 12.191406 16.523438 12.261719 C 16.558594 12.285156 16.589844 12.308594 16.621094 12.335938 C 16.714844 12.40625 16.804688 12.480469 16.890625 12.554688 C 16.921875 12.585938 16.953125 12.613281 16.984375 12.640625 C 17.070312 12.722656 17.15625 12.804688 17.238281 12.886719 C 17.261719 12.910156 17.28125 12.9375 17.304688 12.960938 C 17.582031 13.261719 17.832031 13.59375 18.039062 13.953125 C 18.042969 13.957031 18.046875 13.960938 18.046875 13.96875 C 18.03125 13.964844 18.015625 13.957031 18 13.957031 C 17.777344 13.957031 17.597656 14.136719 17.597656 14.359375 C 17.597656 14.578125 17.777344 14.757812 18 14.757812 C 18.144531 14.757812 18.269531 14.675781 18.339844 14.558594 C 18.371094 14.632812 18.40625 14.707031 18.433594 14.785156 C 18.441406 14.808594 18.453125 14.835938 18.460938 14.859375 C 18.507812 14.988281 18.550781 15.121094 18.589844 15.257812 C 18.722656 15.734375 18.800781 16.234375 18.800781 16.757812 C 18.800781 17.539062 18.636719 18.289062 18.34375 18.964844 Z M 23.199219 14.757812 L 19.277344 14.757812 C 19.1875 14.484375 19.074219 14.222656 18.953125 13.96875 C 18.929688 13.921875 18.910156 13.878906 18.886719 13.832031 C 18.832031 13.730469 18.777344 13.628906 18.71875 13.53125 C 18.683594 13.472656 18.648438 13.414062 18.613281 13.359375 C 18.554688 13.265625 18.496094 13.171875 18.429688 13.082031 C 18.390625 13.027344 18.351562 12.972656 18.3125 12.921875 C 18.183594 12.75 18.046875 12.585938 17.902344 12.429688 C 17.867188 12.390625 17.832031 12.347656 17.792969 12.3125 C 17.714844 12.230469 17.632812 12.152344 17.550781 12.074219 C 17.503906 12.03125 17.457031 11.988281 17.40625 11.945312 C 17.320312 11.871094 17.234375 11.796875 17.144531 11.726562 C 17.097656 11.691406 17.054688 11.65625 17.007812 11.625 C 16.695312 11.394531 16.367188 11.191406 16.015625 11.019531 C 15.957031 10.988281 15.898438 10.960938 15.839844 10.933594 C 15.742188 10.886719 15.640625 10.847656 15.539062 10.804688 C 15.464844 10.777344 15.390625 10.75 15.3125 10.722656 C 15.21875 10.691406 15.128906 10.65625 15.03125 10.628906 C 14.871094 10.578125 14.707031 10.535156 14.539062 10.5 C 14.472656 10.488281 14.40625 10.476562 14.339844 10.464844 C 14.210938 10.441406 14.082031 10.421875 13.953125 10.40625 C 13.886719 10.398438 13.820312 10.390625 13.753906 10.386719 C 13.703125 10.378906 13.652344 10.371094 13.601562 10.371094 L 13.601562 5.15625 L 23.199219 5.15625 Z M 23.199219 14.757812"/>
    <path d="M13.601562 11.957031C13.601562 12.175781 13.421875 12.355469 13.199219 12.355469 12.980469 12.355469 12.800781 12.175781 12.800781 11.957031 12.800781 11.734375 12.980469 11.558594 13.199219 11.558594 13.421875 11.558594 13.601562 11.734375 13.601562 11.957031zM8.800781 16.757812C8.800781 16.976562 8.621094 17.15625 8.398438 17.15625 8.179688 17.15625 8 16.976562 8 16.757812 8 16.535156 8.179688 16.355469 8.398438 16.355469 8.621094 16.355469 8.800781 16.535156 8.800781 16.757812zM13.601562 16.757812C13.601562 16.976562 13.421875 17.15625 13.199219 17.15625 12.980469 17.15625 12.800781 16.976562 12.800781 16.757812 12.800781 16.535156 12.980469 16.355469 13.199219 16.355469 13.421875 16.355469 13.601562 16.535156 13.601562 16.757812zM10 13.15625C10 13.378906 9.820312 13.558594 9.601562 13.558594 9.378906 13.558594 9.199219 13.378906 9.199219 13.15625 9.199219 12.9375 9.378906 12.757812 9.601562 12.757812 9.820312 12.757812 10 12.9375 10 13.15625zM11.199219 14.355469C11.199219 14.578125 11.019531 14.757812 10.800781 14.757812 10.578125 14.757812 10.398438 14.578125 10.398438 14.355469 10.398438 14.136719 10.578125 13.957031 10.800781 13.957031 11.019531 13.957031 11.199219 14.136719 11.199219 14.355469zM13.601562 14.355469C13.601562 14.578125 13.421875 14.757812 13.199219 14.757812 12.980469 14.757812 12.800781 14.578125 12.800781 14.355469 12.800781 14.136719 12.980469 13.957031 13.199219 13.957031 13.421875 13.957031 13.601562 14.136719 13.601562 14.355469zM12.398438 13.15625C12.398438 13.378906 12.222656 13.558594 12 13.558594 11.777344 13.558594 11.601562 13.378906 11.601562 13.15625 11.601562 12.9375 11.777344 12.757812 12 12.757812 12.222656 12.757812 12.398438 12.9375 12.398438 13.15625zM10 15.558594C10 15.777344 9.820312 15.957031 9.601562 15.957031 9.378906 15.957031 9.199219 15.777344 9.199219 15.558594 9.199219 15.335938 9.378906 15.15625 9.601562 15.15625 9.820312 15.15625 10 15.335938 10 15.558594zM11.199219 16.757812C11.199219 16.976562 11.019531 17.15625 10.800781 17.15625 10.578125 17.15625 10.398438 16.976562 10.398438 16.757812 10.398438 16.535156 10.578125 16.355469 10.800781 16.355469 11.019531 16.355469 11.199219 16.535156 11.199219 16.757812zM12.398438 15.558594C12.398438 15.777344 12.222656 15.957031 12 15.957031 11.777344 15.957031 11.601562 15.777344 11.601562 15.558594 11.601562 15.335938 11.777344 15.15625 12 15.15625 12.222656 15.15625 12.398438 15.335938 12.398438 15.558594zM14.800781 13.15625C14.800781 13.378906 14.621094 13.558594 14.398438 13.558594 14.179688 13.558594 14 13.378906 14 13.15625 14 12.9375 14.179688 12.757812 14.398438 12.757812 14.621094 12.757812 14.800781 12.9375 14.800781 13.15625zM14.800781 15.558594C14.800781 15.777344 14.621094 15.957031 14.398438 15.957031 14.179688 15.957031 14 15.777344 14 15.558594 14 15.335938 14.179688 15.15625 14.398438 15.15625 14.621094 15.15625 14.800781 15.335938 14.800781 15.558594zM16 16.757812C16 16.976562 15.820312 17.15625 15.601562 17.15625 15.378906 17.15625 15.199219 16.976562 15.199219 16.757812 15.199219 16.535156 15.378906 16.355469 15.601562 16.355469 15.820312 16.355469 16 16.535156 16 16.757812zM16 14.355469C16 14.578125 15.820312 14.757812 15.601562 14.757812 15.378906 14.757812 15.199219 14.578125 15.199219 14.355469 15.199219 14.136719 15.378906 13.957031 15.601562 13.957031 15.820312 13.957031 16 14.136719 16 14.355469zM17.199219 13.15625C17.199219 13.378906 17.019531 13.558594 16.800781 13.558594 16.578125 13.558594 16.398438 13.378906 16.398438 13.15625 16.398438 12.9375 16.578125 12.757812 16.800781 12.757812 17.019531 12.757812 17.199219 12.9375 17.199219 13.15625zM17.199219 15.558594C17.199219 15.777344 17.019531 15.957031 16.800781 15.957031 16.578125 15.957031 16.398438 15.777344 16.398438 15.558594 16.398438 15.335938 16.578125 15.15625 16.800781 15.15625 17.019531 15.15625 17.199219 15.335938 17.199219 15.558594zM18.398438 16.757812C18.398438 16.976562 18.222656 17.15625 18 17.15625 17.777344 17.15625 17.601562 16.976562 17.601562 16.757812 17.601562 16.535156 17.777344 16.355469 18 16.355469 18.222656 16.355469 18.398438 16.535156 18.398438 16.757812zM13.601562 21.558594C13.601562 21.777344 13.421875 21.957031 13.199219 21.957031 12.980469 21.957031 12.800781 21.777344 12.800781 21.558594 12.800781 21.335938 12.980469 21.15625 13.199219 21.15625 13.421875 21.15625 13.601562 21.335938 13.601562 21.558594zM10 17.957031C10 18.175781 9.820312 18.355469 9.601562 18.355469 9.378906 18.355469 9.199219 18.175781 9.199219 17.957031 9.199219 17.734375 9.378906 17.558594 9.601562 17.558594 9.820312 17.558594 10 17.734375 10 17.957031zM11.199219 19.15625C11.199219 19.378906 11.019531 19.558594 10.800781 19.558594 10.578125 19.558594 10.398438 19.378906 10.398438 19.15625 10.398438 18.9375 10.578125 18.757812 10.800781 18.757812 11.019531 18.757812 11.199219 18.9375 11.199219 19.15625zM13.601562 19.15625C13.601562 19.378906 13.421875 19.558594 13.199219 19.558594 12.980469 19.558594 12.800781 19.378906 12.800781 19.15625 12.800781 18.9375 12.980469 18.757812 13.199219 18.757812 13.421875 18.757812 13.601562 18.9375 13.601562 19.15625zM12.398438 17.957031C12.398438 18.175781 12.222656 18.355469 12 18.355469 11.777344 18.355469 11.601562 18.175781 11.601562 17.957031 11.601562 17.734375 11.777344 17.558594 12 17.558594 12.222656 17.558594 12.398438 17.734375 12.398438 17.957031zM10 20.355469C10 20.578125 9.820312 20.757812 9.601562 20.757812 9.378906 20.757812 9.199219 20.578125 9.199219 20.355469 9.199219 20.136719 9.378906 19.957031 9.601562 19.957031 9.820312 19.957031 10 20.136719 10 20.355469zM12.398438 20.355469C12.398438 20.578125 12.222656 20.757812 12 20.757812 11.777344 20.757812 11.601562 20.578125 11.601562 20.355469 11.601562 20.136719 11.777344 19.957031 12 19.957031 12.222656 19.957031 12.398438 20.136719 12.398438 20.355469zM14.800781 17.957031C14.800781 18.175781 14.621094 18.355469 14.398438 18.355469 14.179688 18.355469 14 18.175781 14 17.957031 14 17.734375 14.179688 17.558594 14.398438 17.558594 14.621094 17.558594 14.800781 17.734375 14.800781 17.957031zM14.800781 20.355469C14.800781 20.578125 14.621094 20.757812 14.398438 20.757812 14.179688 20.757812 14 20.578125 14 20.355469 14 20.136719 14.179688 19.957031 14.398438 19.957031 14.621094 19.957031 14.800781 20.136719 14.800781 20.355469zM16 19.15625C16 19.378906 15.820312 19.558594 15.601562 19.558594 15.378906 19.558594 15.199219 19.378906 15.199219 19.15625 15.199219 18.9375 15.378906 18.757812 15.601562 18.757812 15.820312 18.757812 16 18.9375 16 19.15625zM17.199219 17.957031C17.199219 18.175781 17.019531 18.355469 16.800781 18.355469 16.578125 18.355469 16.398438 18.175781 16.398438 17.957031 16.398438 17.734375 16.578125 17.558594 16.800781 17.558594 17.019531 17.558594 17.199219 17.734375 17.199219 17.957031zM17.199219 20.355469C17.199219 20.578125 17.019531 20.757812 16.800781 20.757812 16.578125 20.757812 16.398438 20.578125 16.398438 20.355469 16.398438 20.136719 16.578125 19.957031 16.800781 19.957031 17.019531 19.957031 17.199219 20.136719 17.199219 20.355469zM17.199219 20.355469"/>
</svg>

<svg xmlns="http://www.w3.org/2000/svg" width="32" height="32" viewBox="0 0 24 24">
    <path d="M23.602 4.355H13.199a.401.401 0 0 0-.398.403v3.25L8.82 1.043a.402.402 0 0 0-.344-.2h-.004a.394.394 0 0 0-.344.2L.055 14.957a.384.384 0 0 0 0 .398c.07.125.203.204.343.204h6.52a6.37 6.37 0 0 0-.117 1.199 6.407 6.407 0 0 0 6.398 6.398c3.531 0 6.403-2.87 6.403-6.398 0-.41-.043-.813-.118-1.2h4.118c.218 0 .398-.18.398-.402V4.758a.401.401 0 0 0-.398-.403zM1.094 14.758L8.473 2.043 12.8 9.621v.75c-.051 0-.102.008-.153.016a6.014 6.014 0 0 0-.586.078c-.066.012-.136.02-.199.035a5.44 5.44 0 0 0-.496.129c-.094.027-.187.062-.277.094l-.23.082c-.102.039-.2.082-.301.129-.059.027-.118.054-.172.086a6.234 6.234 0 0 0-.992.605 7.18 7.18 0 0 0-.402.32c-.048.043-.095.086-.141.13-.082.077-.168.155-.247.238-.035.035-.07.078-.105.117-.145.156-.281.32-.41.492a4.312 4.312 0 0 0-.406.61c-.059.097-.118.198-.172.3-.02.047-.043.09-.063.137a6.08 6.08 0 0 0-.324.789zm17.25 4.207a.395.395 0 0 0-.742.191c0 .223.175.403.398.403.016 0 .031-.008.047-.012a5.614 5.614 0 0 1-2.055 2.058c0-.015.008-.03.008-.046a.401.401 0 1 0-.8 0c0 .148.085.273.21.343a5.566 5.566 0 0 1-2.21.453c-.786 0-1.532-.16-2.208-.453a.4.4 0 0 0 .207-.343.401.401 0 1 0-.8 0c0 .015.007.03.011.046a5.595 5.595 0 0 1-2.058-2.058c.015.004.03.012.046.012a.401.401 0 0 0 0-.8.4.4 0 0 0-.343.206 5.547 5.547 0 0 1-.453-2.207c0-.524.074-1.024.207-1.504.039-.133.082-.266.128-.395.008-.023.02-.05.028-.078.031-.074.062-.148.098-.226a.384.384 0 0 0 .335.203.401.401 0 0 0 0-.8c-.015-.001-.03.007-.046.007.003-.004.003-.008.007-.012.211-.36.457-.691.739-.996.02-.023.043-.047.062-.07.082-.086.168-.164.254-.246.031-.028.063-.059.094-.086.09-.078.18-.149.27-.223.03-.023.066-.047.097-.07.098-.075.195-.145.297-.207.02-.016.039-.024.058-.035.06-.04.118-.075.18-.11-.004.02-.012.031-.012.047a.401.401 0 0 0 .801 0 .404.404 0 0 0-.203-.344c.09-.039.184-.074.277-.11l.16-.058c.09-.03.184-.054.274-.082.074-.02.152-.039.23-.058.083-.02.16-.035.243-.051.101-.02.203-.031.304-.047.063-.008.13-.02.196-.023a5.71 5.71 0 0 1 .52-.028c.175 0 .347.012.519.028.066.004.133.015.199.023.102.016.203.027.3.047.083.016.165.031.247.05l.23.06.27.081.164.059c.094.035.187.07.277.11a.4.4 0 0 0-.207.343.401.401 0 0 0 .801 0c0-.016-.008-.027-.008-.043.059.035.121.066.18.106a8.03 8.03 0 0 1 .45.316c.093.07.183.144.269.219.03.03.062.058.093.086.086.082.172.164.254.246.024.023.043.05.067.074a5.576 5.576 0 0 1 .742 1.008c-.016-.004-.031-.012-.047-.012a.401.401 0 0 0 0 .8.4.4 0 0 0 .34-.198c.031.074.066.148.094.226.007.024.02.05.027.074a5.565 5.565 0 0 1 .34 1.898 5.55 5.55 0 0 1-.457 2.208zm4.855-4.207h-3.922a6.684 6.684 0 0 0-.324-.79l-.066-.136c-.055-.102-.11-.203-.168-.3-.035-.06-.07-.118-.106-.173a4.254 4.254 0 0 0-.183-.277c-.04-.055-.078-.11-.117-.16a6.222 6.222 0 0 0-.41-.492c-.036-.04-.071-.082-.11-.117-.078-.083-.16-.16-.242-.239-.047-.043-.094-.086-.145-.129-.086-.074-.172-.148-.261-.218-.047-.036-.09-.07-.137-.102a6.413 6.413 0 0 0-.992-.605c-.059-.032-.118-.06-.176-.086-.098-.047-.2-.086-.3-.13a14.548 14.548 0 0 0-.227-.081c-.094-.032-.184-.067-.282-.094a5.05 5.05 0 0 0-.492-.129l-.2-.035a6.603 6.603 0 0 0-.386-.059c-.066-.008-.133-.015-.2-.02a1.007 1.007 0 0 0-.151-.015V5.156h9.597zm0 0"/>
    <path d="M13.602 11.957a.401.401 0 0 1-.801 0c0-.223.18-.398.398-.398.223 0 .403.175.403.398zm0 0M8.8 16.758A.401.401 0 1 1 8 16.753a.401.401 0 0 1 .802.005zm0 0M13.602 16.758a.401.401 0 1 1-.802-.005.401.401 0 0 1 .802.005zm0 0M10 13.156a.401.401 0 1 1-.802.003.401.401 0 0 1 .802-.003zm0 0M11.2 14.355a.401.401 0 1 1-.803.003.401.401 0 0 1 .802-.003zm0 0M13.602 14.355a.401.401 0 1 1 0 0zm0 0M12.398 13.156a.398.398 0 1 1-.796 0 .398.398 0 1 1 .796 0zm0 0M10 15.559a.4.4 0 1 1-.8-.004.4.4 0 0 1 .8.004zm0 0M11.2 16.758a.4.4 0 1 1-.801-.004.4.4 0 0 1 .8.004zm0 0M12.398 15.559a.398.398 0 1 1-.796 0 .398.398 0 1 1 .796 0zm0 0M14.8 13.156a.401.401 0 1 1 0 0zm0 0M14.8 15.559a.401.401 0 1 1-.801-.005.401.401 0 0 1 .802.005zm0 0M16 16.758a.4.4 0 1 1-.8-.004.4.4 0 0 1 .8.004zm0 0M16 14.355a.401.401 0 1 1-.802.003.401.401 0 0 1 .802-.003zm0 0M17.2 13.156a.401.401 0 1 1-.803.003.401.401 0 0 1 .802-.003zm0 0M17.2 15.559a.4.4 0 1 1-.801-.004.4.4 0 0 1 .8.004zm0 0M18.398 16.758a.398.398 0 1 1-.796 0 .398.398 0 1 1 .796 0zm0 0M13.602 21.559a.401.401 0 1 1-.802-.005.401.401 0 0 1 .802.005zm0 0M10 17.957a.4.4 0 0 1-.8 0c0-.223.179-.398.402-.398.218 0 .398.175.398.398zm0 0M11.2 19.156a.401.401 0 1 1-.803.003.401.401 0 0 1 .802-.003zm0 0M13.602 19.156a.401.401 0 1 1 0 0zm0 0M12.398 17.957a.398.398 0 1 1-.796 0c0-.223.175-.398.398-.398.223 0 .398.175.398.398zm0 0M10 20.355a.401.401 0 1 1-.802.003.401.401 0 0 1 .802-.003zm0 0M12.398 20.355a.398.398 0 1 1-.796 0 .398.398 0 1 1 .796 0zm0 0M14.8 17.957a.401.401 0 0 1-.8 0c0-.223.18-.398.398-.398.223 0 .403.175.403.398zm0 0M14.8 20.355a.401.401 0 1 1 0 0zm0 0M16 19.156a.401.401 0 1 1-.802.003.401.401 0 0 1 .802-.003zm0 0M17.2 17.957a.4.4 0 0 1-.802 0c0-.223.18-.398.403-.398.219 0 .398.175.398.398zm0 0M17.2 20.355a.401.401 0 1 1-.803.003.401.401 0 0 1 .802-.003zm0 0"/>
</svg>
